storage/app/icons/phosphoricons/light/first-aid-kit-light.svg

<svg xmlns="http://www.w3.org/2000/svg" fill="currentColor" viewBox="0 0 256 256"><path d="M216 58h-42V48a22 22 0 0 0-22-22h-48a22 22 0 0 0-22 22v10H40a14 14 0 0 0-14 14v128a14 14 0 0 0 14 14h176a14 14 0 0 0 14-14V72a14 14 0 0 0-14-14M94 48a10 10 0 0 1 10-10h48a10 10 0 0 1 10 10v10H94Zm124 152a2 2 0 0 1-2 2H40a2 2 0 0 1-2-2V72a2 2 0 0 1 2-2h176a2 2 0 0 1 2 2Zm-60-64a6 6 0 0 1-6 6h-18v18a6 6 0 0 1-12 0v-18h-18a6 6 0 0 1 0-12h18v-18a6 6 0 0 1 12 0v18h18a6 6 0 0 1 6 6"/></svg>

<svg xmlns="http://www.w3.org/2000/svg" viewBox="0 0 256 256" fill="currentColor"><path d="M216,58H174V48a22,22,0,0,0-22-22H104A22,22,0,0,0,82,48V58H40A14,14,0,0,0,26,72V200a14,14,0,0,0,14,14H216a14,14,0,0,0,14-14V72A14,14,0,0,0,216,58ZM94,48a10,10,0,0,1,10-10h48a10,10,0,0,1,10,10V58H94ZM218,200a2,2,0,0,1-2,2H40a2,2,0,0,1-2-2V72a2,2,0,0,1,2-2H216a2,2,0,0,1,2,2Zm-60-64a6,6,0,0,1-6,6H134v18a6,6,0,0,1-12,0V142H104a6,6,0,0,1,0-12h18V112a6,6,0,0,1,12,0v18h18A6,6,0,0,1,158,136Z"/></svg>
